X:1
T:Title
%%score 1 { 2 | 3 }
L:1/8
Q:1/4=98
M:3/4
K:F
V:1 treble nm="Grand Piano, Soprano"
V:2 treble nm="Choir Pad, Tianjin, George C. Stebbins"
V:3 bass 
V:1
 [Fc]2 [Fc]3 [FA] | [FB][FA] [FA]2 [EG]2 | [FA]2 [EB]3 [CE] | [CF][EG] [FA]4 | [FA]2 [EG]3 [EA] | %5
w: By~George~Coles~Stebbins,~1894 * *|||||
 [F=B][Fd] [Ec]2 [EG]2 | [Gc]2 [Fc]3 [F=B] | [FA][F=B] [Fc]4 | [Ec]2 [=Bd]3 [Ac] | %9
w: ||||
 [GB][^FA] [Ac]2 [GB]2 | [FB]2 [EB]3 [EG] | [Fc][EB] [FA]4 | [Fc]2 [Af]3 [Fc] | %13
w: ||||
 [FB][FA] [Fe]2 [Fd]2 | [Fd]2 [Fc]3 [FA] | [EB][EG] F4- | F4 z2 |] %17
w: ||||
V:2
 A,2 A,3 C | DC C2 C2 | C2[K:bass] G,3 B, | A,C C4 | C2 C3 C | D=B, E2 E2 | E2 D3 D | %7
 C[K:bass]G, G,4 | G,2 E,3 F, | G,A, ^F,2 G,2 | D2 C3 B, | A,C C4 | A,2 C3 C | CC C2[K:bass] B,2 | %14
 B,2 A,3 C | G,B, A,4- | A,4 z2 |] %17
V:3
 F,2 F,3 F, | F,F, C,2 C,2 | C,2 C,3 C, | C,C, F,4 | F,2 G,3 G, | G,G, C,2 C,2 | C,2 G,3 G, | %7
 .G,2 C,4 | C,2 C,3 C, | C,C, C,2 C,2 | C,2 C,3 C, | C,C, F,4 | F,2 F,3 A, | G,F, B,2 z2 | %14
 B,,2 C,3 C, | C,C, F,4- | F,4 z2 |] %17

